X:6873
T:The Hallstatt Spirits - schottisch/schottische/scottish
O:england
C:Stephan Steiner
N:please mail errors to: simon.wascher@chello.at
M:2/4
L:1/16
K:Am
AB|c3B A2ef|edcd B3A|GABc d2BG|ABce dcAB|
cdBc A2ef|edcd B3A|GABc efBd|c2A2A2:|
|:ce|a2a^fg2ge|fefg e2de|cdBc ABce|dBGB defg|
agfa g2gf|fedf e2dc|BABc deBd|c2A2 A2ce|
a2a^f g2ge|fefg e2de|cdBc ABce|dBGB EGAB|
cdBc A2ef|edcd B3A|GABc deBd|c2A2A2:|


